public/img/SigNozLogo-orange.svg

<svg width="21" height="22" viewBox="0 0 21 22" fill="none" xmlns="http://www.w3.org/2000/svg">
<rect width="21" height="22" fill="black"/>
<g id="wordmark-darkbg-small">
<g id="Frame 5">
<g id="Frame 2">
<rect y="0.5" width="21" height="21" rx="4.2" fill="url(#paint0_radial_2420_727)"/>
<g id="Vector" filter="url(#filter0_di_2420_727)">
<path fill-rule="evenodd" clip-rule="evenodd" d="M2.30957 10.9877L2.30968 10.9871L2.30993 10.9858L2.31053 10.9829L2.31209 10.9755C2.31332 10.9699 2.3149 10.9628 2.31689 10.9544C2.32088 10.9375 2.3265 10.915 2.33413 10.8874C2.3494 10.8322 2.37273 10.7563 2.40715 10.6623C2.47603 10.4741 2.58917 10.2139 2.77066 9.90271C3.1343 9.27914 3.76855 8.45729 4.85999 7.60228C5.95692 6.74295 7.02201 6.28077 7.81702 6.0332C8.21455 5.90941 8.54521 5.83907 8.7797 5.79946C8.89699 5.77964 8.99039 5.76749 9.05624 5.76019C9.08918 5.75654 9.11524 5.75409 9.13399 5.75251C9.14337 5.75172 9.15091 5.75114 9.15657 5.75073L9.16365 5.75024L9.16611 5.75009L9.16749 5.75C9.16749 5.75 9.16785 5.74998 9.19536 6.21562C9.22287 6.68126 9.22319 6.68124 9.22319 6.68124L9.22278 6.68127C9.22089 6.68141 9.21718 6.68169 9.21168 6.68215C9.2007 6.68308 9.18261 6.68475 9.15786 6.6875C9.10835 6.69299 9.03227 6.70277 8.93312 6.71952C8.76334 6.7482 8.52641 6.79721 8.2398 6.87982C8.23096 6.88279 8.22207 6.88581 8.21312 6.88887C7.63663 7.08607 6.81333 7.47156 5.85081 8.22474C4.8907 8.97604 4.35108 9.68445 4.05261 10.1973C3.9032 10.454 3.81373 10.6625 3.76216 10.804C3.73637 10.8747 3.72004 10.9288 3.71043 10.9637C3.70593 10.9801 3.70291 10.9922 3.70107 11C3.70291 11.0078 3.70593 11.0199 3.71043 11.0363C3.72004 11.0712 3.73637 11.1253 3.76216 11.196C3.81373 11.3375 3.9032 11.546 4.05261 11.8027C4.35108 12.3155 4.8907 13.024 5.85081 13.7753C6.81333 14.5284 7.63663 14.9139 8.21312 15.1111C8.22207 15.1142 8.23096 15.1172 8.2398 15.1202C8.52641 15.2028 8.76334 15.2518 8.93312 15.2805C9.03227 15.2972 9.10835 15.307 9.15786 15.3125C9.18261 15.3152 9.2007 15.3169 9.21168 15.3178C9.21718 15.3183 9.22089 15.3186 9.22278 15.3187L9.22319 15.3188C9.22319 15.3188 9.22287 15.3187 9.19536 15.7844C9.16785 16.25 9.16749 16.25 9.16749 16.25L9.16707 16.25L9.16611 16.2499L9.16365 16.2498L9.15657 16.2493C9.15091 16.2489 9.14337 16.2483 9.13399 16.2475C9.11524 16.2459 9.08918 16.2435 9.05624 16.2398C8.99039 16.2325 8.89699 16.2204 8.7797 16.2005C8.54521 16.1609 8.21455 16.0906 7.81702 15.9668C7.02201 15.7192 5.95692 15.257 4.85999 14.3977C3.76855 13.5427 3.1343 12.7209 2.77066 12.0973C2.58917 11.7861 2.47603 11.5259 2.40715 11.3377C2.37273 11.2437 2.3494 11.1678 2.33413 11.1126C2.3265 11.085 2.32088 11.0625 2.31689 11.0456C2.3149 11.0372 2.31332 11.0301 2.31209 11.0245L2.31053 11.0171L2.30993 11.0142L2.30968 11.0129L2.30957 11.0123V10.9877Z" fill="white"/>
<path fill-rule="evenodd" clip-rule="evenodd" d="M18.6896 10.9877L18.6895 10.9871L18.6892 10.9858L18.6886 10.9829L18.687 10.9755C18.6858 10.9699 18.6842 10.9628 18.6823 10.9544C18.6783 10.9375 18.6726 10.915 18.665 10.8874C18.6497 10.8322 18.6264 10.7563 18.592 10.6623C18.5231 10.4741 18.41 10.2139 18.2285 9.90271C17.8648 9.27914 17.2306 8.45729 16.1392 7.60228C15.0422 6.74295 13.9771 6.28077 13.1821 6.0332C12.7846 5.90941 12.4539 5.83907 12.2194 5.79946C12.1021 5.77964 12.0088 5.76749 11.9429 5.76019C11.91 5.75654 11.8839 5.75409 11.8652 5.75251C11.8558 5.75172 11.8482 5.75114 11.8426 5.75073L11.8355 5.75024L11.833 5.75009L11.8317 5.75C11.8317 5.75 11.8313 5.74998 11.8038 6.21562C11.7763 6.68126 11.7759 6.68124 11.7759 6.68124L11.7764 6.68127C11.7782 6.68141 11.782 6.68169 11.7875 6.68215C11.7984 6.68308 11.8165 6.68475 11.8413 6.6875C11.8908 6.69299 11.9669 6.70277 12.066 6.71952C12.2358 6.7482 12.4727 6.79721 12.7593 6.87982C12.7682 6.88279 12.7771 6.88581 12.786 6.88887C13.3625 7.08607 14.1858 7.47156 15.1483 8.22474C16.1084 8.97604 16.6481 9.68445 16.9465 10.1973C17.0959 10.454 17.1854 10.6625 17.237 10.804C17.2628 10.8747 17.2791 10.9288 17.2887 10.9637C17.2932 10.9801 17.2962 10.9922 17.2981 11C17.2962 11.0078 17.2932 11.0199 17.2887 11.0363C17.2791 11.0712 17.2628 11.1253 17.237 11.196C17.1854 11.3375 17.0959 11.546 16.9465 11.8027C16.6481 12.3155 16.1084 13.024 15.1483 13.7753C14.1858 14.5284 13.3625 14.9139 12.786 15.1111C12.7771 15.1142 12.7682 15.1172 12.7593 15.1202C12.4727 15.2028 12.2358 15.2518 12.066 15.2805C11.9669 15.2972 11.8908 15.307 11.8413 15.3125C11.8165 15.3152 11.7984 15.3169 11.7875 15.3178C11.782 15.3183 11.7782 15.3186 11.7764 15.3187L11.7759 15.3188C11.7759 15.3188 11.7763 15.3187 11.8038 15.7844C11.8313 16.25 11.8317 16.25 11.8317 16.25L11.8321 16.25L11.833 16.2499L11.8355 16.2498L11.8426 16.2493C11.8482 16.2489 11.8558 16.2483 11.8652 16.2475C11.8839 16.2459 11.91 16.2435 11.9429 16.2398C12.0088 16.2325 12.1021 16.2204 12.2194 16.2005C12.4539 16.1609 12.7846 16.0906 13.1821 15.9668C13.9771 15.7192 15.0422 15.257 16.1392 14.3977C17.2306 13.5427 17.8648 12.7209 18.2285 12.0973C18.41 11.7861 18.5231 11.5259 18.592 11.3377C18.6264 11.2437 18.6497 11.1678 18.665 11.1126C18.6726 11.085 18.6783 11.0625 18.6823 11.0456C18.6842 11.0372 18.6858 11.0301 18.687 11.0245L18.6886 11.0171L18.6892 11.0142L18.6895 11.0129L18.6896 11.0123V10.9877Z" fill="white"/>
<path fill-rule="evenodd" clip-rule="evenodd" d="M14.3514 10.9996C14.3514 13.0672 12.6873 14.7433 10.6345 14.7433C8.58166 14.7433 6.91752 13.0672 6.91752 10.9996C6.91752 8.93196 8.58166 7.25582 10.6345 7.25582C12.6873 7.25582 14.3514 8.93196 14.3514 10.9996ZM9.70524 8.89371C9.70524 8.89371 9.25862 9.42035 9.12446 9.82965C9.03797 10.0936 9.00831 10.5316 9.00831 10.5316H7.84676C7.84676 10.5316 7.84676 10.1806 8.07907 9.59567C8.31138 9.0107 8.54369 8.89371 8.54369 8.89371H9.70524ZM9.12446 12.1695C9.25862 12.5788 9.70524 13.1054 9.70524 13.1054H8.54369C8.54369 13.1054 8.31138 12.9884 8.07907 12.4035C7.84676 11.8185 7.84676 11.4675 7.84676 11.4675H9.00831C9.00831 11.4675 9.03797 11.9056 9.12446 12.1695Z" fill="white"/>
</g>
</g>
</g>
</g>
<defs>
<filter id="filter0_di_2420_727" x="1.04957" y="5.33" width="18.8999" height="13.02" filterUnits="userSpaceOnUse" color-interpolation-filters="sRGB">
<feFlood flood-opacity="0" result="BackgroundImageFix"/>
<feColorMatrix in="SourceAlpha" type="matrix" values="0 0 0 0 0 0 0 0 0 0 0 0 0 0 0 0 0 0 127 0" result="hardAlpha"/>
<feOffset dy="0.84"/>
<feGaussianBlur stdDeviation="0.63"/>
<feComposite in2="hardAlpha" operator="out"/>
<feColorMatrix type="matrix" values="0 0 0 0 0.368384 0 0 0 0 0.0623777 0 0 0 0 0.0623777 0 0 0 0.25 0"/>
<feBlend mode="normal" in2="BackgroundImageFix" result="effect1_dropShadow_2420_727"/>
<feBlend mode="normal" in="SourceGraphic" in2="effect1_dropShadow_2420_727" result="shape"/>
<feColorMatrix in="SourceAlpha" type="matrix" values="0 0 0 0 0 0 0 0 0 0 0 0 0 0 0 0 0 0 127 0" result="hardAlpha"/>
<feOffset dy="0.84"/>
<feGaussianBlur stdDeviation="0.63"/>
<feComposite in2="hardAlpha" operator="arithmetic" k2="-1" k3="1"/>
<feColorMatrix type="matrix" values="0 0 0 0 0 0 0 0 0 0 0 0 0 0 0 0 0 0 0.06 0"/>
<feBlend mode="normal" in2="shape" result="effect2_innerShadow_2420_727"/>
</filter>
<radialGradient id="paint0_radial_2420_727" cx="0" cy="0" r="1" gradientUnits="userSpaceOnUse" gradientTransform="translate(10.5 11) rotate(45.6903) scale(12.3258)">
<stop offset="0.329632" stop-color="#FF5E19"/>
<stop offset="1" stop-color="#FF2929"/>
</radialGradient>
</defs>
</svg>

<svg xmlns="http://www.w3.org/2000/svg" fill="none" viewBox="0 0 21 22"><path fill="#000" d="M0 0h21v22H0z"/><rect width="21" height="21" y=".5" fill="url(#a)" rx="4.2"/><g fill="#fff" fill-rule="evenodd" clip-rule="evenodd" filter="url(#b)"><path d="M2.31 10.988v-.005l.002-.008.022-.088q.022-.082.073-.225c.069-.188.182-.448.364-.76.363-.623.998-1.445 2.089-2.3a9.3 9.3 0 0 1 2.957-1.569A7 7 0 0 1 8.78 5.8a5 5 0 0 1 .377-.048h.009l.001-.001.028.466.028.465-.065.006q-.076.008-.225.033a6 6 0 0 0-.72.169c-.576.197-1.4.583-2.362 1.336-.96.751-1.5 1.46-1.798 1.972a4 4 0 0 0-.29.607A2 2 0 0 0 3.7 11l.01.036q.013.054.051.16c.052.142.141.35.29.607.3.512.839 1.221 1.799 1.972.962.753 1.786 1.139 2.362 1.336l.027.01c.286.082.523.13.693.16a4 4 0 0 0 .29.038l-.028.465-.028.466h-.01l-.1-.01a5 5 0 0 1-.277-.04 7 7 0 0 1-.963-.233 9.3 9.3 0 0 1-2.957-1.57c-1.091-.854-1.726-1.676-2.09-2.3a5 5 0 0 1-.363-.76 3 3 0 0 1-.095-.312l-.001-.008-.001-.003v-.026m16.381 0v-.002l-.001-.003-.002-.008a2 2 0 0 0-.095-.313 5 5 0 0 0-.363-.76c-.364-.623-.998-1.445-2.09-2.3a9.3 9.3 0 0 0-2.957-1.569 7 7 0 0 0-.963-.234 5 5 0 0 0-.376-.048h-.01l-.001-.001-.028.466-.028.465.011.001.054.005q.076.008.225.033a6 6 0 0 1 .72.169c.577.197 1.4.583 2.362 1.336.96.751 1.5 1.46 1.799 1.972.149.257.238.466.29.607a2 2 0 0 1 .061.196l-.01.036q-.013.054-.051.16c-.052.142-.141.35-.29.607-.299.512-.839 1.221-1.799 1.972-.962.753-1.785 1.139-2.362 1.336l-.027.01a6 6 0 0 1-.693.16 4 4 0 0 1-.29.038l.028.465.028.466h.011l.1-.01q.1-.01.276-.04c.235-.04.566-.11.963-.233a9.3 9.3 0 0 0 2.957-1.57c1.092-.854 1.726-1.676 2.09-2.3.181-.31.294-.571.363-.76a3 3 0 0 0 .095-.312l.002-.008v-.029"/><path d="M14.351 11c0 2.067-1.664 3.743-3.717 3.743S6.918 13.067 6.918 11s1.664-3.744 3.716-3.744S14.352 8.932 14.352 11M9.705 8.894s-.446.526-.58.936c-.087.264-.117.702-.117.702H7.847s0-.351.232-.936.465-.702.465-.702zm-.58 3.275c.134.41.58.936.58.936H8.544s-.233-.117-.465-.702-.232-.936-.232-.936h1.161s.03.439.116.702"/></g><defs><radialGradient id="a" cx="0" cy="0" r="1" gradientTransform="rotate(45.69 -7.805 17.962)scale(12.3258)" gradientUnits="userSpaceOnUse"><stop offset=".33" stop-color="#FF5E19"/><stop offset="1" stop-color="#FF2929"/></radialGradient><filter id="b" width="18.9" height="13.02" x="1.05" y="5.33" color-interpolation-filters="sRGB" filterUnits="userSpaceOnUse"><feFlood flood-opacity="0" result="BackgroundImageFix"/><feColorMatrix in="SourceAlpha" result="hardAlpha" values="0 0 0 0 0 0 0 0 0 0 0 0 0 0 0 0 0 0 127 0"/><feOffset dy=".84"/><feGaussianBlur stdDeviation=".63"/><feComposite in2="hardAlpha" operator="out"/><feColorMatrix values="0 0 0 0 0.368384 0 0 0 0 0.0623777 0 0 0 0 0.0623777 0 0 0 0.25 0"/><feBlend in2="BackgroundImageFix" result="effect1_dropShadow_2420_727"/><feBlend in="SourceGraphic" in2="effect1_dropShadow_2420_727" result="shape"/><feColorMatrix in="SourceAlpha" result="hardAlpha" values="0 0 0 0 0 0 0 0 0 0 0 0 0 0 0 0 0 0 127 0"/><feOffset dy=".84"/><feGaussianBlur stdDeviation=".63"/><feComposite in2="hardAlpha" k2="-1" k3="1" operator="arithmetic"/><feColorMatrix values="0 0 0 0 0 0 0 0 0 0 0 0 0 0 0 0 0 0 0.06 0"/><feBlend in2="shape" result="effect2_innerShadow_2420_727"/></filter></defs></svg>
